X: 232
T: The Derry
R: hornpipe
M: 4/4
L: 1/8
K: Dmaj
|:AG|F2Ad fdAF|G2Bd gdBG|F2Ad fdAF|E2GB ecAG|
F2Ad fdAF|G2Bd g2ag|fafd Bgec|d2 f2 d2:|
|:fg|a2fd Adfa|g2ec Aceg|a2fd Adgf|(3efd (3cdB A2fg|
a2fd Adfa|gece g2ag|fafd Bgec|d2 f2 d2:|
